src/24/panel/indicator-virtual-box.svg

<svg xmlns="http://www.w3.org/2000/svg" width="24" height="24" version="1.1">
 <defs>
  <style id="current-color-scheme" type="text/css">
   .ColorScheme-Text { color:#dfdfdf; } .ColorScheme-Highlight { color:#4285f4; }
  </style>
 </defs>
 <path style="fill:currentColor" class="ColorScheme-Text" d="M 6,4 C 4.892,4 4,4.892 4,6 v 12 c 0,1.108 0.892,2 2,2 h 12 c 1.108,0 2,-0.892 2,-2 V 6 C 20,4.892 19.108,4 18,4 Z m 4.992188,2 a 1.0001,1.0001 0 0 1 0.96875,0.7246094 l 1.111328,3.8925786 0.978515,-2.9335942 a 1.0001,1.0001 0 0 1 1.898438,0 L 17.720703,13 H 19 v 2 H 17 A 1.0001,1.0001 0 0 1 16.050781,14.316406 L 15,11.164062 13.949219,14.316406 a 1.0001,1.0001 0 0 1 -1.910157,-0.04101 l -0.867187,-3.035157 -1.1914062,5.955078 a 1.0001,1.0001 0 0 1 -1.9414063,0.08008 L 6.2460938,11 H 5 V 9 H 7 A 1.0001,1.0001 0 0 1 7.9609375,9.724609 L 8.828125,12.759766 10.019531,6.8046875 A 1.0001,1.0001 0 0 1 10.992188,6 Z"/>
</svg>

<svg xmlns="http://www.w3.org/2000/svg" width="24" height="24"><defs><style id="current-color-scheme" type="text/css">.ColorScheme-Text{color:#dfdfdf;}.ColorScheme-Highlight{color:#5294e2;}</style></defs><defs><style id="current-color-scheme" type="text/css"></style></defs><path d="M6 4c-1.108 0-2 .892-2 2v12c0 1.108.892 2 2 2h12c1.108 0 2-.892 2-2V6c0-1.108-.892-2-2-2zm4.992 2a1 1 0 0 1 .969.725l1.111 3.892.979-2.933a1 1 0 0 1 1.898 0L17.721 13H19v2h-2a1 1 0 0 1-.95-.684L15 11.164l-1.05 3.152a1 1 0 0 1-1.91-.04l-.868-3.036-1.192 5.955a1 1 0 0 1-1.94.08L6.245 11H5V9h2a1 1 0 0 1 .96.725l.868 3.035 1.192-5.955A1 1 0 0 1 10.992 6z" fill="currentColor" class="ColorScheme-Text"/></svg>
